www/assets/icons/aspect_ratio.svg

<svg xmlns="http://www.w3.org/2000/svg" width="24" height="24" viewBox="0 0 24 24" fill='currentColor'><path d="M19 12h-2v3h-3v2h5zM7 9h3V7H5v5h2zm14-6H3c-1.1 0-2 .9-2 2v14c0 1.1.9 2 2 2h18c1.1 0 2-.9 2-2V5c0-1.1-.9-2-2-2m0 16.01H3V4.99h18z"/></svg>

<svg width="24" height="24" viewBox="0 0 24 24" xmlns="http://www.w3.org/2000/svg" fill='currentColor'><path d="M19 12H17V15H14V17H19V12ZM7 9H10V7H5V12H7V9ZM21 3H3C1.9 3 1 3.9 1 5V19C1 20.1 1.9 21 3 21H21C22.1 21 23 20.1 23 19V5C23 3.9 22.1 3 21 3ZM21 19.01H3V4.99H21V19.01Z"/></svg>
